X:1
T:Lord Randal
M:3/4
L:1/4
K:C
C/2-D/2| E2 E/2G/2| E/2- G3/2 C| E/2 E3/2 G| G2 C| E E G| e- d c| E3/2 D/2 D|\
 D2 C| D E G| E D C/2C/2| C C C| c c d| e3/2- d/2d/2 c/2| c A G| E/2 G E/2- D|\
 C2||
